assets/shelf.svg

<?xml version="1.0" encoding="utf-8"?>
<!-- Generator: Adobe Illustrator 25.0.1, SVG Export Plug-In . SVG Version: 6.00 Build 0)  -->
<svg version="1.1" id="Layer_1" xmlns="http://www.w3.org/2000/svg" xmlns:xlink="http://www.w3.org/1999/xlink" x="0px" y="0px"
	 viewBox="0 0 1152 273.6" style="enable-background:new 0 0 1152 273.6;" xml:space="preserve">
<style type="text/css">
	.st0{fill:#445097;}
	.st1{fill:#FFFFFF;}
	.st2{fill:#F3EBDE;}
	.st3{fill:#1A305F;}
	.st4{fill:#F26368;}
	.st5{fill:#FAA264;}
	.st6{fill:#293C80;}
	.st7{fill:#F9C2BA;}
	.st8{fill:#445093;}
	.st9{fill:#F8A26A;}
	.st10{fill:none;stroke:#1A305F;stroke-width:2.344;stroke-miterlimit:10;}
	.st11{opacity:5.000000e-02;fill:#FFFFFF;}
	.st12{fill:none;stroke:#FFFFFF;stroke-width:1.5786;stroke-miterlimit:10;}
	.st13{fill:#F9C3BC;}
	.st14{fill:#455296;}
	.st15{fill:#F7A36F;}
	.st16{fill:#F1646B;}
	.st17{fill:#F4ECE0;}
	.st18{fill:#F9A36A;}
	.st19{fill:#1B315E;}
	.st20{fill:#EF656E;}
	.st21{fill:#F7A470;}
	.st22{fill:#F5EDE1;}
	.st23{fill:#1B325C;}
	.st24{fill:none;stroke:#1B325C;stroke-width:0.8703;stroke-linecap:round;stroke-linejoin:round;stroke-miterlimit:10;}
	.st25{fill:#455292;}
	.st26{fill:#102E4D;}
	.st27{opacity:0.42;fill:#081827;enable-background:new    ;}
	
		.st28{opacity:0.4;fill:none;stroke:#F7A36F;stroke-width:4.1141;stroke-linecap:round;stroke-linejoin:round;stroke-miterlimit:10;}
	.st29{opacity:0.4;fill:#F7A36F;}
	
		.st30{opacity:0.4;fill:none;stroke:#F7A36F;stroke-width:4.0531;stroke-linecap:round;stroke-linejoin:round;stroke-miterlimit:10;}
</style>
<g>
	<path class="st3" d="M1154,272.6l-0.1-131.3l-3.8,0l0-101.7l-22.6,0l0,101.7l-6.7,0l0.1-124.1l-20.8,0l-0.1,124.1l-8.2,0l0-86.8
		l-40.3,0l0,86.8l-4,0l0-65.6l-37.1,0l0,65.6l-11.2,0l-0.1-107.9l-67.8,0l0.1,107.9l-6.7,0l-0.1-108.7l-20.8,0l0.1,108.7l-6.7,0
		l0-86.4l-22.6,0l0,86.4l-7.7,0l0-71.2l-46.1,0l0,71.2l-7,0l0-16.8l0-8l-4.3,0l-0.1-48.2l-3.5,0l0-4.8l-16.9,0l0,4.8L722,68.6
		l0.1,48.2l-4.3,0l0,8h0l0,16.7l-83.8,0l0-32.1l-293.6,0.1l0-12.6l55.9-26.4l-1.3-2.1l38.2-18l3.2,9.4l8.2-3.2l4,5.3
		c0.5,0.7,1.8,0.2,1.5-0.6l-1.8-6.2l7.6-3l-11-16.4l-14.9,5.8l1.2,3.4l-39.3,18.5l-1.5-2.5l-67.5,31.8l0.2,0.4l0,16.4l-17.1,0
		l0,32.1l-37.9,0l0-41.2l-13.1,0l0-61.6l-11.2,0l0,61.6l-12.3,0l0-49.3l-13.1,0l0,49.3l-4.7,0l0-60.5l-13.4,0l0,60.5l-9,0l0,41.2
		l-17,0l0-89.8l-17.7,0l0,89.8l-5.6,0l0-70.7l-17.7,0l0,70.7l-5.2,0l0-92.1l-17.3,0l0-8.7l-40.7,0l0,100.8l-6.5,0L63.7,34.6l-23.5,0
		l0.1,107.2l-3.3,0L36.9-0.4l-36.1,0l0.1,172.6l0.1,0l0,101L1154,272.6z"/>
	<rect x="370.6" y="90.9" class="st3" width="245.7" height="10.6"/>
</g>
</svg>

<?xml version="1.0" encoding="UTF-8" standalone="no"?>
<!DOCTYPE svg PUBLIC "-//W3C//DTD SVG 1.1//EN" "http://www.w3.org/Graphics/SVG/1.1/DTD/svg11.dtd">
<svg width="100%" height="100%" viewBox="0 0 1141 173" version="1.1" xmlns="http://www.w3.org/2000/svg" xmlns:xlink="http://www.w3.org/1999/xlink" xml:space="preserve" xmlns:serif="http://www.serif.com/" style="fill-rule:evenodd;clip-rule:evenodd;stroke-linejoin:round;stroke-miterlimit:2;">
    <g transform="matrix(1,0,0,1,-9,0)">
        <path d="M1154,272.6L1153.9,141.3L1150.1,141.3L1150.1,39.6L1127.5,39.6L1127.5,141.3L1120.8,141.3L1120.9,17.2L1100.1,17.2L1100,141.3L1091.8,141.3L1091.8,54.5L1051.5,54.5L1051.5,141.3L1047.5,141.3L1047.5,75.7L1010.4,75.7L1010.4,141.3L999.2,141.3L999.1,33.4L931.3,33.4L931.4,141.3L924.7,141.3L924.6,32.6L903.8,32.6L903.9,141.3L897.2,141.3L897.2,54.9L874.6,54.9L874.6,141.3L866.9,141.3L866.9,70.1L820.8,70.1L820.8,141.3L813.8,141.3L813.8,116.5L809.5,116.5L809.4,68.3L805.9,68.3L805.9,63.5L789,63.5L789,68.3L722,68.6L722.1,116.8L717.8,116.8L717.8,141.5L634,141.5L634,109.4L340.4,109.5L340.4,96.9L396.3,70.5L395,68.4L433.2,50.4L436.4,59.8L444.6,56.6L448.6,61.9C449.1,62.6 450.4,62.1 450.1,61.3L448.3,55.1L455.9,52.1L444.9,35.7L430,41.5L431.2,44.9L391.9,63.4L390.4,60.9L322.9,92.7L323.1,93.1L323.1,109.5L306,109.5L306,141.6L268.1,141.6L268.1,100.4L255,100.4L255,38.8L243.8,38.8L243.8,100.4L231.5,100.4L231.5,51.1L218.4,51.1L218.4,100.4L213.7,100.4L213.7,39.9L200.3,39.9L200.3,100.4L191.3,100.4L191.3,141.6L174.3,141.6L174.3,51.8L156.6,51.8L156.6,141.6L151,141.6L151,70.9L133.3,70.9L133.3,141.6L128.1,141.6L128.1,49.5L110.8,49.5L110.8,40.8L70.1,40.8L70.1,141.6L63.6,141.6L63.7,34.6L40.2,34.6L40.3,141.8L37,141.8L36.9,-0.4L0.8,-0.4L0.9,172.2L1,172.2L1,273.2L1154,272.6Z" style="fill:rgb(26,48,95);fill-rule:nonzero;"/>
        <rect x="370.6" y="90.9" width="245.7" height="10.6" style="fill:rgb(26,48,95);"/>
    </g>
</svg>
